X:1
T:Title
%%score { ( 1 4 ) | ( 2 3 ) }
L:1/8
Q:1/4=100
M:4/4
K:G
V:1 treble nm="Grand Piano"
V:4 treble 
V:2 bass 
V:3 bass 
V:1
 [DB]2 [B,G]>[CA] [DB]2 [B,G][B,D] | [CE]2 [DF]>F G B3 | [DB]2 [B,G]>[DB] [Ec]2 [DB]G | z4 A2 z2 | %4
w: W.~H.~Pontius * * * * *||||
 B2 G>A B2 z B | d2 [=Fd]>[Fd] [Ec] [CE]3 | [EG]2 [DF]>E DG B2 | AG B>A [B,G]4 | z4 B4 | z4 d4 | %10
w: ||||||
 d2 [^Ge]>[Gd] .[CAd]2 [DB]A | AG B>A G4 |] %12
w: ||
V:2
 [G,,G,]2 [G,,G,]>[F,,G,] [G,,G,]2 [G,,G,][G,,G,] | [C,G,]2 [A,,A,]>[D,A,D] [G,B,D] [G,D]3 | %2
 [G,,G,]2 [G,,G,]>[G,,G,] [G,,G,]2 z B, | [D,A,D]2 [D,B,D]>[D,B,D] [D,D]4 | %4
 [G,DG]2 [G,B,]>[G,CG] [G,DG]2 [G,B,][G,D] | [G,B,G]2[K:bass] [B,,G,]>[B,,G,] [C,G,] [C,G,]3 | %6
 [C,C]2 [C,C]>[C,G,C] [D,G,B,][D,B,D] [D,G,D]2 | [F,C][G,B,] [D,F,D]>[D,F,C] G,,4 | %8
 z4[K:treble] [G,DG]2 [G,D]2 | E2 E>G G2- [G,G]2 | %10
 [G,B,G]2[K:bass] [E,B,]>[E,B,] z[K:treble] c[K:bass][=B,,G,][C,G,C] | %11
 [F,C][G,B,] [D,F,D]>[D,CD] [G,B,D]4 |] %12
V:3
 x8 | x8 | z4 z2 [G,,G,]2 | x8 | x8 | x2[K:bass] x6 | x8 | D,2 z2 z4 | x4[K:treble] x4 | %9
 z4 [G,B,]2 z2 | z4[K:bass] _B,,2[K:treble][K:bass] z2 | D,2 z2 z4 |] %12
V:4
 x8 | x8 | x8 | F2 G>G F2- [F_B]2 | z4 z2 G2 | x8 | x8 | x8 | A2 A>d z2 G2 | c2 c>e z2 B,2 | x8 | %11
 x8 |] %12

